actions/22/go-last.svg

<?xml version="1.0" encoding="UTF-8" standalone="no"?>
<!-- Created with Inkscape (http://www.inkscape.org/) -->
<svg
   xmlns:svg="http://www.w3.org/2000/svg"
   xmlns="http://www.w3.org/2000/svg"
   xmlns:xlink="http://www.w3.org/1999/xlink"
   version="1.0"
   width="22"
   height="22"
   id="svg3264">
  <defs
     id="defs3266">
    <linearGradient
       id="linearGradient2264">
      <stop
         id="stop2266"
         style="stop-color:#d7e866;stop-opacity:1"
         offset="0" />
      <stop
         id="stop2268"
         style="stop-color:#8cab2a;stop-opacity:1"
         offset="1" />
    </linearGradient>
    <linearGradient
       x1="22.181572"
       y1="14.499924"
       x2="22.181572"
       y2="44.051018"
       id="linearGradient2483"
       xlink:href="#linearGradient2264"
       gradientUnits="userSpaceOnUse"
       gradientTransform="matrix(0.5165267,0,0,0.5333212,2.539558,-1.7415553)" />
    <linearGradient
       id="linearGradient4222">
      <stop
         id="stop4224"
         style="stop-color:#ffffff;stop-opacity:1"
         offset="0" />
      <stop
         id="stop4226"
         style="stop-color:#ffffff;stop-opacity:0"
         offset="1" />
    </linearGradient>
    <linearGradient
       x1="28.62199"
       y1="18.218788"
       x2="28.62199"
       y2="49.56282"
       id="linearGradient2480"
       xlink:href="#linearGradient4222"
       gradientUnits="userSpaceOnUse"
       gradientTransform="matrix(-0.599071,0,0,0.6156931,29.228963,-4.9814102)" />
  </defs>
  <g
     transform="matrix(-1,0,0,1,21.999999,0)"
     id="layer1">
    <rect
       width="21"
       height="1.9877303"
       x="0.50000006"
       y="-2.4907982"
       transform="matrix(0,1,-1,0,0,0)"
       id="rect2488"
       style="opacity:1;fill:#d1e272;fill-opacity:1;fill-rule:nonzero;stroke:#699636;stroke-width:1;stroke-linecap:butt;stroke-linejoin:round;marker:none;marker-start:none;marker-mid:none;marker-end:none;stroke-miterlimit:4;stroke-dasharray:none;stroke-dashoffset:0;stroke-opacity:1;visibility:visible;display:inline;overflow:visible;enable-background:accumulate" />
    <path
       d="M 12.496931,0.4884489 L 2.485379,11.026409 L 12.496931,21.511552 L 12.496931,16.5 L 21.508483,16.5 L 21.508483,5.5 L 12.496931,5.5 L 12.496931,0.4884489 L 12.496931,0.4884489 z"
       id="path2495"
       style="fill:url(#linearGradient2483);fill-opacity:1;fill-rule:nonzero;stroke:#699536;stroke-width:0.97689688;stroke-linecap:round;stroke-linejoin:round;marker:none;stroke-miterlimit:4;stroke-dasharray:none;stroke-dashoffset:0;stroke-opacity:1;visibility:visible;display:inline;overflow:visible" />
    <path
       d="M 11.496932,3.1232479 L 3.979696,11 L 11.408697,19.010594 L 11.496937,15.5 L 20.496937,15.5 L 20.496937,6.5 L 11.496937,6.5 L 11.496937,3.1232479 L 11.496932,3.1232479 z"
       id="path2497"
       style="opacity:0.35400008;fill:none;stroke:url(#linearGradient2480);stroke-width:1;stroke-linecap:butt;stroke-linejoin:miter;marker:none;stroke-miterlimit:4;stroke-dasharray:none;stroke-dashoffset:0;stroke-opacity:1;visibility:visible;display:inline;overflow:visible" />
  </g>
</svg>

<?xml version="1.0" encoding="UTF-8" standalone="no"?>
<!-- Created with Inkscape (http://www.inkscape.org/) -->

<svg
   xmlns:dc="http://purl.org/dc/elements/1.1/"
   xmlns:cc="http://creativecommons.org/ns#"
   xmlns:rdf="http://www.w3.org/1999/02/22-rdf-syntax-ns#"
   xmlns:svg="http://www.w3.org/2000/svg"
   xmlns="http://www.w3.org/2000/svg"
   xmlns:xlink="http://www.w3.org/1999/xlink"
   xmlns:inkscape="http://www.inkscape.org/namespaces/inkscape"
   version="1.0"
   width="22"
   height="22"
   id="svg3264">
  <metadata
     id="metadata18">
    <rdf:RDF>
      <cc:Work
         rdf:about="">
        <dc:format>image/svg+xml</dc:format>
        <dc:type
           rdf:resource="http://purl.org/dc/dcmitype/StillImage" />
      </cc:Work>
    </rdf:RDF>
  </metadata>
  <defs
     id="defs3266">
    <linearGradient
       id="linearGradient2264">
      <stop
         id="stop2266"
         style="stop-color:#d7e866;stop-opacity:1"
         offset="0" />
      <stop
         id="stop2268"
         style="stop-color:#8cab2a;stop-opacity:1"
         offset="1" />
    </linearGradient>
    <linearGradient
       x1="22.181572"
       y1="14.499924"
       x2="22.181572"
       y2="44.051018"
       id="linearGradient2483"
       xlink:href="#linearGradient2264"
       gradientUnits="userSpaceOnUse"
       gradientTransform="matrix(0.5165267,0,0,0.5333212,2.539558,-1.7415553)" />
    <linearGradient
       id="linearGradient4222">
      <stop
         id="stop4224"
         style="stop-color:#ffffff;stop-opacity:1"
         offset="0" />
      <stop
         id="stop4226"
         style="stop-color:#ffffff;stop-opacity:0"
         offset="1" />
    </linearGradient>
    <linearGradient
       x1="28.62199"
       y1="18.218788"
       x2="28.62199"
       y2="49.56282"
       id="linearGradient2480"
       xlink:href="#linearGradient4222"
       gradientUnits="userSpaceOnUse"
       gradientTransform="matrix(-0.599071,0,0,0.6156931,29.228963,-4.9814102)" />
  </defs>
  <g
     transform="matrix(-1,0,0,1,21.999999,0)"
     id="layer1">
    <rect
       width="21"
       height="1.9877303"
       x="0.50000006"
       y="-2.4907982"
       transform="matrix(0,1,-1,0,0,0)"
       id="rect2488"
       style="fill:#d1e272;fill-opacity:1;fill-rule:nonzero;stroke:#699636;stroke-width:1;stroke-linecap:butt;stroke-linejoin:round;stroke-miterlimit:4;stroke-opacity:1;stroke-dasharray:none;stroke-dashoffset:0;marker:none;visibility:visible;display:inline;overflow:visible;enable-background:accumulate" />
    <path
       d="M 12.496931,0.4884489 2.485379,11.026409 l 10.011552,10.485143 0,-5.011552 9.011552,0 0,-11 -9.011552,0 0,-5.0115511 0,0 z"
       inkscape:connector-curvature="0"
       id="path2495"
       style="fill:url(#linearGradient2483);fill-opacity:1;fill-rule:nonzero;stroke:#699536;stroke-width:0.97689688;stroke-linecap:round;stroke-linejoin:round;stroke-miterlimit:4;stroke-opacity:1;stroke-dasharray:none;stroke-dashoffset:0;marker:none;visibility:visible;display:inline;overflow:visible" />
    <path
       d="M 11.496932,3.1232479 3.979696,11 11.408697,19.010594 11.496937,15.5 l 9,0 0,-9 -9,0 0,-3.3767521 -5e-6,0 z"
       inkscape:connector-curvature="0"
       id="path2497"
       style="opacity:0.35400008;fill:none;stroke:url(#linearGradient2480);stroke-width:1;stroke-linecap:butt;stroke-linejoin:miter;stroke-miterlimit:4;stroke-opacity:1;stroke-dasharray:none;stroke-dashoffset:0;marker:none;visibility:visible;display:inline;overflow:visible" />
  </g>
</svg>
